X:1
T:6.  Macht hoch die Tür
T:Hugo Distler
T:Georg Wessel (1590 - 1635)
T:6.  Throw Wide the Gates Macht hoch die Tür Advent
T:Bärenreiter
T:Bärenreiter
T:Bärenreiter
T:Bärenreiter
T:Bärenreiter
C:Hugo Distler
Z:Georg Wessel
Z:(1590 - 1635)
Z:Bärenreiter
%%score [ 1 2 ( 3 4 ) ]
L:1/8
Q:1/4=80
M:3/4
K:G
V:1 treble nm="Sop. 1"
V:2 treble nm="Sop. 2"
V:3 treble nm="Alto"
V:4 treble 
V:1
 B2 | d4 c2 |[M:2/4] B2 B2 |[M:3/4] (A3 G AB |[M:2/4] c4 |[M:3/4] B3 A) G2 |[M:2/4] !breath!A2 c2 | %7
w: 1.  Throw|wide the|gates, fling|wide _ _ _|_|* * the|doors, He|
w: 2.  Our|right- eous|ben- e-|fac- * * *||* * tor,|He, Com-|
w: 3.  Blessed|be the|land, the|cit- * * *||* * y|blessed, with|
w: 4.  Throw|wide the|gates, fling|wide _ _ _|_|* * the|doors, a|
w: 5.  O|Sav- ior,|Je- sus|Christ, _ _ _|_|* * O|come, my|
 B2 B2 | e4 |[M:3/4] d2 (c3 B) |[M:2/4] c4 | !breath!B2 B2 |[M:3/4] A4 A2 | B2 ^c2 (d2- | %14
w: comes, the|glo-|rious heav'n- *|ly|Lord, of|earth the|King of all|
w: pan- ion,|ev-|er meek _|and|mild, whose|head is|crowned with ho-|
w: such a|King|to strength- *|en|it! And|blessed be|ev- 'ry heart|
w: tem- ple|make|my heart, _|yet|more, a|lit- tle|branch of hol-|
w: heart's door|have|I o- *|pened,|come; bring|all Thy|grace and mer-|
 d2 e2) ^c2 | d6- |[M:4/4] d2 z2 z4 |[M:2/4] z2 d2 |[M:3/4] e4 d2 |[M:2/4] e2 d2 | %20
w: _ _ the|kings,|_|sal-|va- tion,|life, and|
w: * * li-|ness,|_|who|heals our|bro- ken-|
w: _ _ there-|in|_|He|is of|joy our|
w: * * i-|||and|so the|King now|
w: * * cy|in,|_|Thy|Hol- y|Spir- it|
[M:6/4] (e2 d3 c B2 c2) c2 |[M:3/4] B6- |[M:2/4] B2 z2 |[M:8/4] z8 z4 z2 d2 |[M:3/4] G4 G2 | %25
w: joy _ _ _ _ He|brings;|_|All|prais- es|
w: ness _ _ _ _ and|pain;|_|all|prais- es|
w: ra- * * * * diant|Sun,|_|All|prais- es|
w: comes _ _ _ _ to|you,|_|All|prais- es|
w: shows _ _ _ _ to|us|_|Thy|Name be|
 c4 B2 | A6 ||[M:2/2][Q:1/4=160]"^(  = previous  )" d8 | c8 | !breath!B4 d4 | c4 B4 | (A6 G2 | %32
w: be to|God,|Cre-|a-|tor, Cre-|a- tor,|Coun- *|
w: be to|God,|our|Sav-|ior our|Sav- ior|and _|
w: be to|God,|my|Com-|fort, my|Com- fort-|er _|
w: be to|God,|most|gra-|cious, most|gra- cious|Coun- *|
w: praised, O|Lord,|And|hon-|ored, and|hon- ored|ev- *|
 A4) A4 | (G6 A2 | B2 G2 B2 c2 | d8- | d8) |] %37
w: * se-|lor. _|_ _ _ _|||
w: _ our|Lord. _|_ _ _ _|||
w: _ and|Lord. _|_ _ _ _|||
w: * sel-|lor. _|_ _ _ _|||
w: * er-|more. _|_ _ _ _|||
V:2
 z2 | z6 |[M:2/4] z2 D2 |[M:3/4] D2 D2 E2- |[M:2/4] E2 F2 |[M:3/4] (F3 E) D2 |[M:2/4] !breath!E4 | %7
w: ||1.  Throw|wide the gates,|_ fling|wide _ the|doors,|
w: ||2.  Our|right- eous ben-|* e-|fac- * tor,|He,|
w: ||3.  Blessed|be the land,|_ the|cit- * y|blessed,|
w: ||4.  Throw|wide the gates,|_ fling|wide _ the|doors,|
w: ||5.  O|Sav- ior, Je-|* sus|Christ, _ O|come,|
 G2 F2 | E2 (A2- |[M:3/4] AGEF) G2 |[M:2/4] G2 F2 | G4 |[M:3/4] z6 | z2 z2 F2 | A3 ^G F2- | %15
w: He comes,|the glo-|* * * * rious|heav'n- ly|Lord,||the|Sav- ior of|
w: Com- pan-|ion, ev-|* * * * er|meek and|mild,||whose|scep- ter, mer-|
w: with such|a King|_ _ _ _ to|strength- en|it!||A-|bid- ing in|
w: a tem-|ple make|_ _ _ _ my|heart, yet|more,||with|joy, de- vo-|
w: my heart's|door have|_ _ _ _ I|o- pened,|come;||and|on us let|
 F2 E2 (F2- |[M:4/4] F^G A4) A2 |[M:2/4] !breath!F2 B2 |[M:3/4] =G2 E2 (A2- |[M:2/4] AG =F2 | %20
w: _ the world|_ _ _ we|sing, sal-|va- tion, life,|_ _ _|
w: * cy, gen-|* * * tle-|ness; who|heals our bro-||
w: _ this King's|_ _ _ do-|main. He|is of joy|_ _ _|
w: * tion, hap-|* * * pi-|ness; and|so the King|_ _ _|
w: _ Thy kind-|* * * ness|shine. Thy|Hol- y Spir-||
[M:6/4] G4) A2 G4 ^F2 |[M:3/4] G6- |[M:2/4] G2 z2 |[M:8/4] z8 z4 z2 D2 |[M:3/4] D2 D2 (E2- | %25
w: * and joy He|brings;|_|All|prais- es be|
w: * ken- ness and|pain;|_|all|prais- es be|
w: * our ra- diant|Sun,|_|All|prais- es be|
w: * now comes to|you,|_|All|prais- es be|
w: * it shows to|us|_|Thy|Name be praised,|
 E2 F2) G2 | F6 ||[M:2/2] G8 | E8 | G8- | G8 | D8 | C8 | (E6 D2 | E2 F2 G2 A2 | B8- | B8) |] %37
w: _ _ to|God,|Cre-|a-|tor,|_|Coun-|se-|lor. _|_ _ _ _|||
w: _ _ to|God,|our|Sav-|ior|_|and|our|Lord. _|_ _ _ _|||
w: _ _ to|God,|my|Com-|fort-||er|and|Lord. _|_ _ _ _|||
w: _ _ to|God,|most|gra-|cious|_|Coun-|sel-|lor. _|_ _ _ _|||
w: _ _ O|Lord,|And|hon-|ored|_|ev-|er-|more. _|_ _ _ _|||
V:3
 z2 | z6 |[M:2/4] z2 G,2 |[M:3/4] D4 C2 |[M:2/4] B,2 A,2 |[M:3/4] (G,2 A,2) B,2 |[M:2/4] A,4 | %7
w: ||1.  Throw|wide the|gates, fling|wide _ the|doors,|
w: ||2.  Our|right- eous|ben- e-|fac- * tor,|He,|
w: ||3.  Blessed|be the|land, the|cit- * y|blessed,|
w: ||4.  Throw|wide the|gates, fling|wide _ the|doors,|
w: ||5.  O|Sav- ior,|Je- sus|Christ, _ O|come,|
 z2 D2 | C2 C2 |[M:3/4] B,4 B,2 |[M:2/4] A,2 A,2 | G,4 |[M:3/4] z6 | z2 z2 B,2 | A,4 A,2 | %15
w: He|comes, the|glo- rious|heav'n- ly|Lord,||the|Sav- ior|
w: Com-|pan- ion,|ev- er|meek and|mild,||whose|scep- ter,|
w: with|such a|King to|strength- en|it!||A-|bid- ing|
w: a|tem- ple|make my|heart, yet|more,||with|joy, de-|
w: my|heart's door|have I|o- pened,|come;||and|on us|
 (B,2 ^C2) (D2- |[M:4/4] D2 ^CB,) C2 C2 |[M:2/4] D4 |[M:3/4] z6 |[M:2/4] z4 |[M:6/4] z4 z2 z4 D2 | %21
w: of _ the|_ _ _ world we|sing,|||there-|
w: mer- * cy,|_ _ _ gen- tle-|ness;|||there-|
w: in _ this|_ _ _ King's do-|main.|||and|
w: vo- * tion,|_ _ _ hap- pi-|ness;|||sal-|
w: let _ Thy|_ _ _ kind- ness|shine.|||the|
[M:3/4] E4 D2 |[M:2/4] E2 D2 |[M:8/4] (G2 F3 F G3 F D2 E2) D2 |[M:3/4] !breath!B,4 E2 | A,4 A,2 | %26
w: fore, let|us re-|joice _ _ _ _ _ _ and|sing: All|prais- es|
w: fore in|joy we|sing _ _ _ _ _ _ a-|gain: all|prais- es|
w: joy and|won- der|from _ _ _ _ _ _ Him|come. All|prais- es|
w: va- tion,|life He|of- * * * * * * fers|us. All|prais- es|
w: path to|age- less|hol- * * * * * * i-|ness. Thy|Name be|
 D4 C2 ||[M:2/2] B,8- | !breath!B,4 A,4 | E4 !breath!D2 D2 | E4 G4 | G8- | G4 F4 | (G6 F2 | %34
w: be to|God,|_ Cre-|a- tor, Cre-|a- tor,|Coun-|* se-|lor. _|
w: be to|God,|_ our|Sav- ior our|Sav- ior|and|_ our|Lord. _|
w: be to|God,|_ my|Com- fort, my|Com- fort-|er|_ and|Lord. _|
w: be to|God,|_ most|gra- cious, most|gra- cious|Coun-|* sel-|lor. _|
w: praised, O|Lord,|_ And|hon- ored, and|hon- ored|ev-|* er-|more. _|
 E2 D2 C4 | G8- | G8) |] %37
w: _ _ _|||
w: _ _ _|||
w: _ _ _|||
w: _ _ _|||
w: _ _ _|||
V:4
 x2 | x6 |[M:2/4] x4 |[M:3/4] x6 |[M:2/4] x4 |[M:3/4] x6 |[M:2/4] x4 | x4 | x4 |[M:3/4] x6 | %10
[M:2/4] x4 | x4 |[M:3/4] x6 | x6 | x6 | x6 |[M:4/4] x8 |[M:2/4] x4 |[M:3/4] x6 |[M:2/4] x4 | %20
[M:6/4] x12 |[M:3/4] x6 |[M:2/4] x4 |[M:8/4] x16 |[M:3/4] x6 | x6 | x6 ||[M:2/2] x8 | x8 | x8 | %30
 x8 | x8 | x8 | x8 | x4 C4 | G,8- | G,8 |] %37

